images/src/sort--desc.svg

<svg height="12" viewBox="0 0 10 12" width="14" xmlns="http://www.w3.org/2000/svg"><path d="m4.25.75v7.9375l-2.46875-2.46875-1.0625 1.0625 4.28125 4.279297 4.28125-4.279297-1.0625-1.0625-2.46875 2.46875v-7.9375z" fill="#004adc"/></svg>

<svg
  xmlns='http://www.w3.org/2000/svg'
  width='14'
  height='12'
  viewBox='0 0 10 12'>
  <path
    d='M 4.25 0.75 L 4.25 8.6875 L 1.78125 6.21875 L 0.71875 7.28125 L 5 11.560547 L 9.28125 7.28125 L 8.21875 6.21875 L 5.75 8.6875 L 5.75 0.75 L 4.25 0.75 z'
    fill='#004adc'/>
</svg>
